rospo-dark/16x16/actions/edit-guides.svg

<svg height="16" viewBox="0 0 16 16" width="16" xmlns="http://www.w3.org/2000/svg"><path d="m2.8398438 1.0058594c-.28103.04373-.84375.2339837-.84375.9335937v12.1269529c0 .93282 1 .933594 1 .933594h9.9902342c.99921 0 1-.933594 1-.933594.0188-.04301.005-6.9521248 0-9.3281248l-3.9960936-3.7324218h-6.9941406s-.0625-.01455002-.15625 0zm3.15625 3.9941406 4 3-4 3z" fill="#d3dae3"/></svg>

<?xml version="1.0" encoding="UTF-8" standalone="no"?>
<svg xmlns="http://www.w3.org/2000/svg" width="22" height="22" viewBox="0 0 22 22">
 <defs>
  <style type="text/css" id="current-color-scheme">
   .ColorScheme-Text { color:#d3dae3; } .ColorScheme-Highlight { color:#5294e2; }
  </style>
 </defs>
 <path style="fill:currentColor;opacity:1" class="ColorScheme-Text" transform="translate(3 3)" d="M 2.8398438 1.0058594 C 2.5588138 1.0495894 1.9960938 1.2398431 1.9960938 1.9394531 L 1.9960938 14.066406 C 1.9960938 14.999226 2.9960938 15 2.9960938 15 L 12.986328 15 C 13.985538 15 13.986328 14.066406 13.986328 14.066406 C 14.005128 14.023396 13.991328 7.1142812 13.986328 4.7382812 L 9.9902344 1.0058594 L 2.9960938 1.0058594 C 2.9960938 1.0058594 2.9335938 0.99130938 2.8398438 1.0058594 z M 5.9960938 5 L 9.9960938 8 L 5.9960938 11 L 5.9960938 5 z"/>
</svg>
